X: 234
T:Humours of Ballycullen
M:4/4
R:Polka
K:Edor
B2 EG|FF E2|B2Ec|d2 cA|B2 EG|FG EG|FA D F/A/|d2 cA:|
Be ed/e/|fe ed|Be ef|d2 BA|Be ed/e/|fe ed |BAcA|d2BA|
Be ed/e/|fe ed|Be ef|d2 de|fg/f/ ec|de cA|D F/A/d2-|d2 cA||

